source/img/svg/icon-sharing-ok.svg

<svg width="24" height="24" viewBox="0 0 24 24" fill="none" xmlns="http://www.w3.org/2000/svg">
<path d="M16.7333 11.9998C16 11.9998 14.5333 13.4665 11.6 13.4665C8.66667 13.4665 7.2 11.9998 6.46667 11.9998C5.66 11.9998 5 12.6598 5 13.4665C5 14.1998 5.44 14.5665 5.73333 14.7132C6.61333 15.2265 9.4 16.3998 9.4 16.3998L6.24667 20.3598C6.24667 20.3598 5.66 21.0198 5.66 21.5332C5.66 22.3398 6.32 22.9998 7.12667 22.9998C7.86 22.9998 8.22667 22.4865 8.22667 22.4865L11.6 18.5998L14.9 22.4865C14.9 22.4865 15.2667 22.9998 16 22.9998C16.8067 22.9998 17.4667 22.3398 17.4667 21.5332C17.4667 21.0932 16.88 20.3598 16.88 20.3598L13.8 16.3998C13.8 16.3998 16.5867 15.2265 17.4667 14.7132C17.76 14.4932 18.2 14.1998 18.2 13.4665C18.2 12.6598 17.54 11.9998 16.7333 11.9998Z" fill="#4A4B4D"/>
<path d="M11.604 1.0002C8.74404 1.0002 6.4707 3.27353 6.4707 6.13353C6.4707 8.99353 8.74404 11.2669 11.604 11.2669C14.464 11.2669 16.7374 8.99353 16.7374 6.13353C16.7374 3.27353 14.464 1.0002 11.604 1.0002ZM11.604 8.7002C10.2107 8.7002 9.03737 7.52687 9.03737 6.13353C9.03737 4.7402 10.2107 3.56687 11.604 3.56687C12.9974 3.56687 14.1707 4.7402 14.1707 6.13353C14.1707 7.52687 12.9974 8.7002 11.604 8.7002Z" fill="#4A4B4D"/>
</svg>

<svg width="24" height="24" fill="none" xmlns="http://www.w3.org/2000/svg"><path d="M16.733 12c-.733 0-2.2 1.466-5.133 1.466S7.2 12 6.467 12A1.47 1.47 0 005 13.466c0 .734.44 1.1.733 1.247.88.514 3.667 1.687 3.667 1.687l-3.153 3.96s-.587.66-.587 1.173c0 .807.66 1.467 1.467 1.467.733 0 1.1-.514 1.1-.514L11.6 18.6l3.3 3.886S15.267 23 16 23c.807 0 1.467-.66 1.467-1.467 0-.44-.587-1.173-.587-1.173L13.8 16.4s2.787-1.173 3.667-1.687c.293-.22.733-.513.733-1.246 0-.807-.66-1.467-1.467-1.467zM11.604 1a5.102 5.102 0 00-5.133 5.134 5.102 5.102 0 005.133 5.133 5.102 5.102 0 005.133-5.133A5.102 5.102 0 0011.604 1zm0 7.7c-1.393 0-2.567-1.173-2.567-2.566 0-1.394 1.174-2.567 2.567-2.567 1.393 0 2.567 1.173 2.567 2.567 0 1.393-1.174 2.566-2.567 2.566z" fill="#4A4B4D"/></svg>
